X:127
T:Oranges and Lemons. (p)1657.PLFD.128
M:C
L:1/8
Q:1/2=80
S:Playford, Dancing Master,3rd Ed.,1657
O:England
H:1657.
Z:Chris Partington.
K:D
d2 e2 afed | e3 d B3 A | d3 f afed |1 e3 f d4 :|2 e3 f d2 |
|: ga | b6 ag | a6 fe | d3 f afed | e3 d B3 A | d3 f afed |1 e3 f d2 :|2 e3 f d4 |]
